svg/clockface/clockfacesquaresolid/clock_03_20.svg

<?xml version="1.0" encoding="UTF-8" standalone="no"?>
<svg
   height="1000"
   width="1000"
   version="1.1"
   viewBox="0 0 1000 1000"
   id="svg7"
   sodipodi:docname="clock_03_20.svg"
   xmlns:inkscape="http://www.inkscape.org/namespaces/inkscape"
   xmlns:sodipodi="http://sodipodi.sourceforge.net/DTD/sodipodi-0.dtd"
   xmlns="http://www.w3.org/2000/svg"
   xmlns:svg="http://www.w3.org/2000/svg">
  <defs
     id="defs11" />
  <sodipodi:namedview
     id="namedview9"
     pagecolor="#ffffff"
     bordercolor="#000000"
     borderopacity="0.25"
     inkscape:showpageshadow="2"
     inkscape:pageopacity="0.0"
     inkscape:pagecheckerboard="0"
     inkscape:deskcolor="#d1d1d1" />
  <path
     id="path15"
     style="color:#000000;fill:#000000;stroke-width:60;-inkscape-stroke:none"
     d="M 129 129 L 129 159 L 129 869 L 869 869 L 869 129 L 129 129 z M 500 470 L 650 470 A 30 30 0 0 1 680 500 A 30 30 0 0 1 650 530 L 611.96094 530 L 714.18555 589.01953 A 30 30 0 0 1 725.16602 630 A 30 30 0 0 1 684.18555 640.98047 L 485 525.98047 A 30.003 30.003 0 0 1 470.46289 505.20898 A 30.003 30.003 0 0 1 500 470 z " />
</svg>

<svg xmlns="http://www.w3.org/2000/svg" width="1000" height="1000"><path d="M129 129v740h740V129H129zm371 341h150a30 30 0 0 1 30 30 30 30 0 0 1-30 30h-38.04l102.226 59.02a30 30 0 0 1 10.98 40.98 30 30 0 0 1-40.98 10.98L485 525.98a30.003 30.003 0 0 1-14.537-20.771A30.003 30.003 0 0 1 500 470z" style="-inkscape-stroke:none" stroke-width="60"/></svg>
